src/images/crypto-icon-svg/kcs.svg

<svg xmlns="http://www.w3.org/2000/svg" width="32" height="32" viewBox="0 0 32 32">
  <g fill="none" fill-rule="evenodd">
    <circle cx="16" cy="16" r="16" fill="#0093DD"/>
    <path fill="#FFF" d="M13.5409024,16.0000054 L18.7139285,21.3307267 L21.9788844,17.9668241 C22.5554761,17.3725392 23.490889,17.3726966 24.0674797,17.9668241 C24.6441227,18.5609516 24.6442242,19.5245222 24.0674797,20.1185959 L19.7582409,24.5584962 C19.1841958,25.1498415 18.2384409,25.1444883 17.6697934,24.5584962 L11.4537163,18.153148 L11.4536145,21.961131 C11.4536145,22.7971079 10.7881832,23.4828742 9.9766052,23.4828742 C9.16115512,23.4828742 8.5,22.8014649 8.5,21.9612935 L8.5,10.0390016 C8.5,9.1988778 9.16115217,8.51742077 9.9766052,8.51742077 C10.792208,8.51742077 11.4536145,9.19909306 11.4536145,10.0390016 L11.4536145,13.8469846 L17.6697901,7.44148409 C18.2384356,6.85554471 19.1841895,6.85013877 19.7582376,7.44148409 L24.0674764,11.8813843 C24.6442208,12.475459 24.6441193,13.4390825 24.0674764,14.0331562 C23.4908847,14.6272309 22.5554718,14.627441 21.978881,14.0331562 L18.7139251,10.6693043 L13.5408991,16.0000764 L13.5409024,16.0000054 Z M18.7161656,14.4768406 C19.5323804,14.4768406 20.1943969,15.1589322 20.1943969,15.9998429 C20.1943969,16.8409638 19.5323784,17.5230584 18.7161656,17.5230584 C17.8998492,17.5230584 17.2378259,16.8409668 17.2378259,15.9998429 C17.2378259,15.1589322 17.8998443,14.4768406 18.7161656,14.4768406 Z"/>
  </g>
</svg>

<svg xmlns="http://www.w3.org/2000/svg" width="32" height="32"><g fill="none" fill-rule="evenodd"><circle cx="16" cy="16" r="16" fill="#0093DD"/><path fill="#FFF" d="M13.54 16l5.174 5.33 3.265-3.363a1.446 1.446 0 0 1 2.088 0 1.554 1.554 0 0 1 0 2.152l-4.309 4.44a1.456 1.456 0 0 1-2.088 0l-6.216-6.406v3.808c0 .836-.666 1.522-1.477 1.522-.816 0-1.477-.682-1.477-1.522V10.04c0-.84.661-1.522 1.477-1.522.815 0 1.477.682 1.477 1.522v3.808l6.216-6.406a1.456 1.456 0 0 1 2.088 0l4.31 4.44a1.554 1.554 0 0 1 0 2.152 1.446 1.446 0 0 1-2.09 0l-3.264-3.364L13.54 16zm5.176-1.523c.816 0 1.478.682 1.478 1.523 0 .841-.662 1.523-1.478 1.523s-1.478-.682-1.478-1.523c0-.841.662-1.523 1.478-1.523z"/></g></svg>
